X:641
T:Braes of Auchtertyre, The
B:Kerr's Merry Melodies
Z:Nigel Gatherer
L:1/8
M:4/4
K:C
E | C2 C>F    E<GG>A  | c>de>d       c>AG<c  | 
    A/A/A A>G A2 a2   | g>c      f>e d2 c2   |
    C2 C>F    E<GG>A  | c>de>d       c>AG<c  | 
    A>cG>c    F>cE>c  | d/c/B/A/ c<E D2 C   ||
f | e>fg>a    g>ec>g  | a/g/f/e/ d>f e>dc>G  |
    A/A/A a>g a2 c'2  | e<cf>e       d2 c>f  |
    e>fg>a    g>ec>g  | a/g/f/e/ d>f e>dc>G  |
    A>cG>c    F>cE>c  | d/c/B/A/ c<E D2 C   |]
<end>
<start>
